X:424
T: Shannanhaibei dou zhaohong
N: C2042
O: China, Anhui Fanchang
S: III, 518, 2)]
R: Shange]
M: 2/4
L: 1/16
K: Bb
d2d2c4- | c8
d2f2d2c2 | b8- | b4
c2d2 | c2b2cbgf | d8
f3gb4 | c2dccbgd- | d3f
g2fg | b3fg2fg | f8

